!! 00000] TT[00
!! NN
!!!OTL: Yuanjia tihu ba jiuquan
!!!ARE: Asia, Ostasien, China, .....
!! Ethnic Group: Han
!! Haozi - Artikel, Essen 1991
!!!SCT: C0000
!!!YEM: Copyright 1995, estate of Helmut Schaffrath.
**kern
*ICvox
*Ivox
*M2/4
*k[f#c#g#]
*A:
{8ee
8ee
8b
16b
16cc#
=1
8.b
16cc#
4ee
=2
16cc#
16b
8a
4b
=3
8cc#
16cc#
16b
8a
16a
16f#}
=4
{8.e
16f#
4e
=5
8a
16f#
16a
8f#
16a
16f#
=6
16f#
16a
16b
16f#
4a
=7
8b
8f#
8f#
16a
16f#
=8
8.e
16f#
4e}
==
!!!AGN: Haozi zum Abbau von Steinen
!! Die Vorlage enth„lt zwei Phrasen. Alles wird wiederholt.
!!!ONB: ESAC (Essen Associative Code) Database: CHINAx
!!!AMT: simple duple
!!!AIN: vox
!!!EED: Helmut Schaffrath
!!!EEV: 1.0
*-
